static/assets/images/networks/arbitrum-nova.svg

<svg width="256" height="256" viewBox="0 0 256 256" fill="none" xmlns="http://www.w3.org/2000/svg">
<path fill-rule="evenodd" clip-rule="evenodd" d="M128 256C198.692 256 256 198.692 256 128C256 57.3075 198.692 0 128 0C57.3075 0 0 57.3075 0 128C0 198.692 57.3075 256 128 256ZM120.135 25.11C122.59 23.69 125.345 23 128.1 23C130.855 23 133.61 23.735 136.065 25.155L213.13 69.98C218.035 72.865 221.05 78.115 221.05 83.8L220.75 172.965C220.75 178.645 217.69 183.9 212.74 186.74L135.415 231.04C132.96 232.46 130.205 233.15 127.45 233.15C124.695 233.15 121.94 232.415 119.485 230.995L42.42 186.175C37.515 183.29 34.5 178.04 34.5 172.355L34.8 83.19C34.8 77.505 37.86 72.255 42.81 69.41L120.135 25.11Z" fill="#FF7700"/>
<path d="M105.382 75.5H93.8144C92.9245 75.5 92.184 76.0454 91.8854 76.8835L54.5642 179.059C54.3174 179.754 54.8111 180.443 55.5516 180.443H67.1194C68.0093 180.443 68.7498 179.897 69.0484 179.059L106.318 76.8319C106.616 76.1889 106.123 75.5 105.376 75.5H105.382Z" fill="#FF7700"/>
<path d="M120.412 115.146C120.067 114.256 118.781 114.256 118.483 115.146L112.449 131.657C112.3 132.099 112.3 132.598 112.449 133.092L129.258 179.116C129.557 179.955 130.343 180.5 131.187 180.5H142.755C143.496 180.5 143.989 179.805 143.743 179.116L120.412 115.152V115.146Z" fill="#FF7700"/>
<path d="M125.653 75.5H114.085C113.196 75.5 112.455 76.0454 112.157 76.8835L74.887 179.059C74.6402 179.754 75.1339 180.443 75.8744 180.443H87.4422C88.3321 180.443 89.0726 179.897 89.3712 179.059L126.641 76.8319C126.888 76.1889 126.394 75.5 125.653 75.5Z" fill="#FF7700"/>
<path d="M130.544 87.3149C130.2 86.4251 128.914 86.4251 128.616 87.3149L122.588 103.826C122.438 104.268 122.438 104.767 122.588 105.261L149.529 179.065C149.828 179.903 150.614 180.449 151.458 180.449H163.026C163.767 180.449 164.26 179.754 164.014 179.065L130.55 87.3207L130.544 87.3149Z" fill="#FF7700"/>
<path d="M200.491 75.5H188.923C188.033 75.5 187.293 76.0454 186.994 76.8835L160.006 150.688C159.857 151.13 159.857 151.629 160.006 152.123L166.04 168.634C166.384 169.524 167.67 169.524 167.969 168.634L201.432 76.8893C201.679 76.1946 201.185 75.5057 200.491 75.5057V75.5Z" fill="#FF7700"/>
<path d="M155.902 140.802C156.246 141.692 157.532 141.692 157.83 140.802L181.161 76.8835C181.408 76.1889 180.914 75.5 180.174 75.5H168.606C167.716 75.5 166.976 76.0454 166.677 76.8835L149.868 122.908C149.719 123.35 149.719 123.849 149.868 124.343L155.896 140.802H155.902Z" fill="#FF7700"/>
<path fill-rule="evenodd" clip-rule="evenodd" d="M128.1 23C125.345 23 122.59 23.69 120.135 25.11L42.81 69.41C37.86 72.255 34.8 77.505 34.8 83.19L34.5 172.355C34.5 178.04 37.515 183.29 42.42 186.175L119.485 230.995C121.94 232.415 124.695 233.15 127.45 233.15C130.205 233.15 132.96 232.46 135.415 231.04L212.74 186.74C217.69 183.9 220.75 178.645 220.75 172.965L221.05 83.8C221.05 78.115 218.035 72.865 213.13 69.98L136.065 25.155C133.61 23.735 130.855 23 128.1 23ZM93.8144 75.5H105.376C106.123 75.5 106.616 76.1889 106.318 76.8319L69.0484 179.059C68.7498 179.897 68.0093 180.443 67.1194 180.443H55.5516C54.8111 180.443 54.3174 179.754 54.5642 179.059L91.8854 76.8835C92.184 76.0454 92.9245 75.5 93.8144 75.5ZM118.483 115.146C118.781 114.256 120.067 114.256 120.412 115.146V115.152L143.743 179.116C143.989 179.805 143.496 180.5 142.755 180.5H131.187C130.343 180.5 129.557 179.955 129.258 179.116L112.449 133.092C112.3 132.598 112.3 132.099 112.449 131.657L118.483 115.146ZM114.085 75.5H125.653C126.394 75.5 126.888 76.1889 126.641 76.8319L89.3712 179.059C89.0726 179.897 88.3321 180.443 87.4422 180.443H75.8744C75.1339 180.443 74.6402 179.754 74.887 179.059L112.157 76.8835C112.455 76.0454 113.196 75.5 114.085 75.5ZM128.616 87.3149C128.914 86.4251 130.2 86.4251 130.544 87.3149L130.55 87.3207L164.014 179.065C164.26 179.754 163.767 180.449 163.026 180.449H151.458C150.614 180.449 149.828 179.903 149.529 179.065L122.588 105.261C122.438 104.767 122.438 104.268 122.588 103.826L128.616 87.3149ZM188.923 75.5H200.491V75.5057C201.185 75.5057 201.679 76.1946 201.432 76.8893L167.969 168.634C167.67 169.524 166.384 169.524 166.04 168.634L160.006 152.123C159.857 151.629 159.857 151.13 160.006 150.688L186.994 76.8835C187.293 76.0454 188.033 75.5 188.923 75.5ZM157.83 140.802C157.532 141.692 156.246 141.692 155.902 140.802H155.896L149.868 124.343C149.719 123.849 149.719 123.35 149.868 122.908L166.677 76.8835C166.976 76.0454 167.716 75.5 168.606 75.5H180.174C180.914 75.5 181.408 76.1889 181.161 76.8835L157.83 140.802Z" fill="white"/>
</svg>

<svg xmlns="http://www.w3.org/2000/svg" fill="none" viewBox="0 0 256 256"><path fill="#F70" fill-rule="evenodd" d="M128 256c70.692 0 128-57.308 128-128S198.692 0 128 0 0 57.308 0 128s57.308 128 128 128m-7.865-230.89c2.455-1.42 5.21-2.11 7.965-2.11s5.51.735 7.965 2.155L213.13 69.98a16.03 16.03 0 0 1 7.92 13.82l-.3 89.165c0 5.68-3.06 10.935-8.01 13.775l-77.325 44.3c-2.455 1.42-5.21 2.11-7.965 2.11s-5.51-.735-7.965-2.155l-77.065-44.82a16.03 16.03 0 0 1-7.92-13.82l.3-89.165c0-5.685 3.06-10.935 8.01-13.78z" clip-rule="evenodd"/><path fill="#F70" d="M105.382 75.5H93.814c-.89 0-1.63.545-1.929 1.383L54.565 179.06c-.248.695.246 1.384.987 1.384h11.567c.89 0 1.63-.546 1.93-1.384l37.269-102.227c.298-.643-.195-1.332-.942-1.332zm15.03 39.646c-.345-.89-1.631-.89-1.929 0l-6.034 16.511a2.36 2.36 0 0 0 0 1.435l16.809 46.024a2.07 2.07 0 0 0 1.929 1.384h11.568c.741 0 1.234-.695.988-1.384l-23.331-63.964zm5.241-39.646h-11.568c-.889 0-1.63.545-1.928 1.383L74.887 179.06c-.247.695.247 1.384.987 1.384h11.568c.89 0 1.63-.546 1.93-1.384L126.64 76.832c.247-.643-.247-1.332-.988-1.332m4.892 11.815c-.344-.89-1.63-.89-1.928 0l-6.028 16.511c-.15.442-.15.941 0 1.435l26.941 73.804a2.07 2.07 0 0 0 1.929 1.384h11.568c.741 0 1.234-.695.988-1.384L130.55 87.321zM200.491 75.5h-11.568c-.89 0-1.63.545-1.929 1.383l-26.988 73.805a2.36 2.36 0 0 0 0 1.435l6.034 16.511c.344.89 1.63.89 1.929 0l33.463-91.745c.247-.694-.247-1.383-.941-1.383zm-44.589 65.302c.344.89 1.63.89 1.928 0l23.331-63.918c.247-.695-.247-1.384-.987-1.384h-11.568c-.89 0-1.63.545-1.929 1.383l-16.809 46.025a2.36 2.36 0 0 0 0 1.435l6.028 16.459z"/><path fill="#fff" fill-rule="evenodd" d="M128.1 23c-2.755 0-5.51.69-7.965 2.11L42.81 69.41c-4.95 2.845-8.01 8.095-8.01 13.78l-.3 89.165a16.03 16.03 0 0 0 7.92 13.82l77.065 44.82a15.93 15.93 0 0 0 7.965 2.155c2.755 0 5.51-.69 7.965-2.11l77.325-44.3c4.95-2.84 8.01-8.095 8.01-13.775l.3-89.165a16.03 16.03 0 0 0-7.92-13.82l-77.065-44.825A15.93 15.93 0 0 0 128.1 23M93.814 75.5h11.562c.747 0 1.24.689.942 1.332l-37.27 102.227c-.298.838-1.039 1.384-1.929 1.384H55.552c-.74 0-1.235-.689-.988-1.384L91.885 76.884c.299-.839 1.04-1.384 1.93-1.384m24.669 39.646c.298-.89 1.584-.89 1.929 0v.006l23.331 63.964c.246.689-.247 1.384-.988 1.384h-11.568c-.844 0-1.63-.545-1.929-1.384l-16.809-46.024a2.36 2.36 0 0 1 0-1.435zM114.085 75.5h11.568c.741 0 1.235.689.988 1.332l-37.27 102.227c-.298.838-1.039 1.384-1.929 1.384H75.874c-.74 0-1.234-.689-.987-1.384l37.27-102.175c.298-.839 1.039-1.384 1.928-1.384m14.531 11.815c.298-.89 1.584-.89 1.928 0l.006.006 33.464 91.744c.246.689-.247 1.384-.988 1.384h-11.568c-.844 0-1.63-.546-1.929-1.384l-26.941-73.804a2.34 2.34 0 0 1 0-1.435zM188.923 75.5h11.568v.006c.694 0 1.188.689.941 1.383l-33.463 91.745c-.299.89-1.585.89-1.929 0l-6.034-16.511a2.36 2.36 0 0 1 0-1.435l26.988-73.804c.299-.839 1.039-1.384 1.929-1.384m-31.093 65.302c-.298.89-1.584.89-1.928 0h-.006l-6.028-16.459a2.36 2.36 0 0 1 0-1.435l16.809-46.024c.299-.839 1.039-1.384 1.929-1.384h11.568c.74 0 1.234.689.987 1.383z" clip-rule="evenodd"/></svg>
